flaticon/coffee-shop/coffee-machine-2.svg

<svg xmlns="http://www.w3.org/2000/svg" width="32" height="32" viewBox="0 0 24 24">
    <path d="M23.320312 7.121094L21.398438 6.71875C21.390625 6.71875 21.382812 6.714844 21.371094 6.710938 21.34375 6.699219 21.308594 6.691406 21.277344 6.6875 20.625 6.511719 19.960938 6.417969 19.292969 6.410156 19.265625 6.402344 19.234375 6.398438 19.199219 6.398438 19.167969 6.398438 19.136719 6.402344 19.105469 6.410156 18.480469 6.414062 17.851562 6.492188 17.238281 6.640625 17.226562 6.640625 17.210938 6.640625 17.199219 6.640625 17.101562 6.640625 17.015625 6.667969 16.949219 6.71875 16.738281 6.777344 16.527344 6.84375 16.320312 6.921875 15.121094 7.320312 13.761719 7.320312 12.558594 6.921875 10.960938 6.160156 9.121094 6.238281 7.558594 7.199219L7.441406 7.238281C7.28125 7.320312 7.199219 7.441406 7.199219 7.601562L6.398438 7.601562 6.398438 6.800781C6.398438 6.121094 5.878906 5.601562 5.199219 5.601562L1.199219 5.601562C.519531 5.601562 0 6.121094 0 6.800781L0 10.398438C0 10.519531.0390625 10.601562.121094 10.679688L1.320312 11.878906C1.398438 11.960938 1.480469 12 1.601562 12L1.601562 12.800781C1.601562 13.238281 1.960938 13.601562 2.398438 13.601562L4 13.601562C4.441406 13.601562 4.800781 13.238281 4.800781 12.800781L4.800781 12C4.921875 12 5 11.960938 5.078125 11.878906L6.28125 10.679688C6.359375 10.601562 6.398438 10.519531 6.398438 10.398438L6.398438 10 7.199219 10C7.199219 10.160156 7.28125 10.320312 7.398438 10.398438L7.519531 10.441406C9.160156 11.320312 10.960938 11.441406 12.519531 10.71875 13.71875 10.28125 15.039062 10.28125 16.28125 10.71875 17.199219 11.039062 18.199219 11.199219 19.160156 11.199219 19.878906 11.199219 20.601562 11.121094 21.359375 10.921875L23.320312 10.519531C23.71875 10.398438 24 10 24 9.519531L24 8.078125C24 7.601562 23.71875 7.238281 23.320312 7.121094zM4 12.800781L2.398438 12.800781 2.398438 12 4 12zM5.601562 10.238281L4.640625 11.199219 1.761719 11.199219.800781 10.238281.800781 9.601562 2.398438 9.601562C2.640625 9.601562 2.800781 9.441406 2.800781 9.199219 2.800781 8.960938 2.640625 8.800781 2.398438 8.800781L.800781 8.800781.800781 8 3.199219 8C3.441406 8 3.601562 7.839844 3.601562 7.601562 3.601562 7.359375 3.441406 7.199219 3.199219 7.199219L.800781 7.199219.800781 6.800781C.800781 6.558594.960938 6.398438 1.199219 6.398438L5.199219 6.398438C5.441406 6.398438 5.601562 6.558594 5.601562 6.800781zM6.398438 9.199219L6.398438 8.398438 7.199219 8.398438 7.199219 9.199219zM23.199219 9.519531C23.199219 9.640625 23.199219 9.71875 23.121094 9.761719L21.160156 10.160156C19.640625 10.519531 18.039062 10.480469 16.558594 9.960938 15.839844 9.71875 15.121094 9.601562 14.398438 9.601562 13.679688 9.601562 12.921875 9.71875 12.199219 9.960938 10.878906 10.601562 9.359375 10.519531 8 9.761719L8 7.839844C9.359375 7.078125 10.878906 7 12.238281 7.640625 12.238281 7.679688 12.28125 7.679688 12.28125 7.679688 13.082031 7.941406 13.941406 8.046875 14.800781 7.996094L14.800781 8.398438C14.800781 8.640625 14.960938 8.800781 15.199219 8.800781 15.441406 8.800781 15.601562 8.640625 15.601562 8.398438L15.601562 7.910156C15.925781 7.855469 16.246094 7.777344 16.558594 7.679688 16.640625 7.648438 16.71875 7.621094 16.800781 7.59375L16.800781 8C16.800781 8.238281 17 8.398438 17.199219 8.398438 17.441406 8.398438 17.601562 8.199219 17.601562 8L17.601562 7.367188C17.996094 7.28125 18.398438 7.226562 18.800781 7.207031L18.800781 7.601562C18.800781 7.839844 18.960938 8 19.199219 8 19.441406 8 19.601562 7.839844 19.601562 7.601562L19.601562 7.210938C20 7.238281 20.398438 7.296875 20.800781 7.386719L20.800781 8C20.800781 8.238281 20.960938 8.398438 21.199219 8.398438 21.441406 8.398438 21.601562 8.238281 21.601562 8L21.601562 7.570312 23.078125 7.878906C23.199219 7.878906 23.199219 8 23.199219 8.078125zM2.878906 15.28125C2.71875 15.121094 2.480469 15.121094 2.320312 15.28125L1.601562 16C1.359375 16.28125 1.199219 16.640625 1.199219 17 1.199219 17.398438 1.320312 17.71875 1.601562 18 1.878906 18.238281 2.238281 18.398438 2.601562 18.398438 2.960938 18.398438 3.320312 18.238281 3.601562 18 3.839844 17.71875 4 17.359375 4 17 4 16.601562 3.878906 16.28125 3.601562 16zM3 17.441406C2.800781 17.679688 2.398438 17.679688 2.160156 17.441406 2.078125 17.320312 2 17.160156 2 17 2 16.839844 2.078125 16.679688 2.160156 16.601562L2.601562 16.160156 3.039062 16.558594C3.121094 16.679688 3.199219 16.839844 3.199219 17 3.199219 17.160156 3.121094 17.320312 3 17.441406zM3 17.441406"/>
</svg>

<svg xmlns="http://www.w3.org/2000/svg" width="32" height="32" viewBox="0 0 24 24">
    <path d="M23.32 7.121l-1.922-.402c-.007 0-.015-.004-.027-.008a.367.367 0 0 0-.094-.024 7.973 7.973 0 0 0-1.984-.277.385.385 0 0 0-.188 0 8.17 8.17 0 0 0-1.867.23H17.2a.406.406 0 0 0-.25.079c-.21.058-.422.125-.629.203a6.069 6.069 0 0 1-3.761 0c-1.598-.762-3.438-.684-5 .277l-.118.04c-.16.081-.242.202-.242.363h-.8V6.8c0-.68-.52-1.2-1.2-1.2h-4c-.68 0-1.199.52-1.199 1.2v3.597c0 .122.04.204.121.282l1.2 1.199c.077.082.16.121.28.121v.8c0 .438.36.802.797.802H4c.441 0 .8-.364.8-.801V12c.122 0 .2-.04.278-.121l1.203-1.2a.366.366 0 0 0 .117-.28V10H7.2c0 .16.082.32.2.398l.12.043c1.641.88 3.442 1 5 .278a5.554 5.554 0 0 1 3.762 0c.918.32 1.918.48 2.88.48.718 0 1.44-.078 2.198-.277l1.961-.402c.399-.122.68-.52.68-1V8.078c0-.476-.281-.84-.68-.957zM4 12.801H2.398V12H4zm1.602-2.563l-.961.961H1.76l-.96-.96v-.637h1.597c.243 0 .403-.16.403-.403 0-.238-.16-.398-.403-.398H.801V8h2.398c.242 0 .403-.16.403-.398 0-.243-.16-.403-.403-.403H.801v-.398c0-.242.16-.403.398-.403h4c.242 0 .403.16.403.403zM6.398 9.2v-.8H7.2v.8zm16.801.32c0 .122 0 .2-.078.243l-1.96.398c-1.52.36-3.122.32-4.602-.2a6.717 6.717 0 0 0-2.16-.358c-.72 0-1.477.117-2.2.359-1.32.64-2.84.559-4.199-.2V7.84c1.36-.762 2.879-.84 4.238-.2 0 .04.043.04.043.04.801.261 1.66.367 2.52.316v.402c0 .243.16.403.398.403.242 0 .403-.16.403-.403V7.91c.324-.055.644-.133.957-.23a5.98 5.98 0 0 1 .242-.086V8a.4.4 0 0 0 .8 0v-.633a7.31 7.31 0 0 1 1.2-.16v.395c0 .238.16.398.398.398.242 0 .403-.16.403-.398V7.21c.398.027.796.086 1.199.176V8c0 .238.16.398.398.398.242 0 .403-.16.403-.398v-.43l1.476.309c.121 0 .121.121.121.2zm0 0M2.879 15.281a.385.385 0 0 0-.559 0L1.602 16c-.243.281-.403.64-.403 1 0 .398.121.719.403 1 .277.238.636.398 1 .398.359 0 .718-.16 1-.398.238-.281.398-.64.398-1 0-.398-.121-.719-.398-1zM3 17.441c-.2.239-.602.239-.84 0-.082-.12-.16-.28-.16-.441 0-.16.078-.32.16-.398l.442-.442.437.399c.082.12.16.28.16.441 0 .16-.078.32-.199.441zm0 0"/>
</svg>
